packages/core/src/svgs/tokens/branded/TOKEN.svg

<svg width="24" height="24" viewBox="0 0 24 24" fill="none" xmlns="http://www.w3.org/2000/svg">
<path fill-rule="evenodd" clip-rule="evenodd" d="M18.0616 18.0623C16.4538 19.67 14.2732 20.5733 11.9995 20.5733C9.72566 20.5733 7.54508 19.67 5.9373 18.0623C4.32951 16.4545 3.42627 14.2739 3.42627 12.0002C3.42627 9.72633 4.32951 7.54575 5.9373 5.93797C7.54508 4.33019 9.72566 3.42694 11.9995 3.42694C14.2732 3.42694 16.4538 4.33019 18.0616 5.93797C19.6693 7.54575 20.5726 9.72633 20.5726 12.0002C20.5726 14.2739 19.6693 16.4545 18.0616 18.0623ZM14.4038 14.101C15.5089 13.8641 16.5895 13.7366 17.646 13.7002C18.1264 13.6899 18.6031 13.7852 19.0426 13.9795C19.164 14.0281 19.164 14.0888 19.0607 14.1556C18.0003 14.8455 16.8205 15.3314 15.5817 15.5886C14.9745 15.71 14.9381 15.9164 15.5028 16.2078C16.0553 16.4932 16.5531 16.8332 16.9842 17.234C17.0875 17.3312 17.0692 17.3857 16.9235 17.404C15.3084 17.6043 13.9605 17.0943 12.5883 16.2989C12.473 16.2381 12.4062 16.2625 12.3819 16.39C12.2483 17.0215 11.8962 18.4665 11.2829 18.7579C11.2693 18.7652 11.2537 18.7678 11.2384 18.7657C11.2231 18.7636 11.209 18.7565 11.1979 18.7457C11.1886 18.7348 11.1833 18.7208 11.1833 18.7064C11.1833 18.6919 11.1886 18.6779 11.1979 18.6668C11.6753 17.9936 11.9741 17.2102 12.0662 16.39C12.0695 16.3642 12.0655 16.3382 12.0547 16.3147C12.0441 16.291 12.027 16.2709 12.0054 16.2564C11.9843 16.2417 11.9598 16.2329 11.9342 16.2308C11.9087 16.2287 11.8829 16.2333 11.8598 16.2442C10.3722 16.9971 9.00606 17.6165 7.26955 17.4162C7.24616 17.4129 7.22413 17.4033 7.20592 17.3882C7.18768 17.3732 7.174 17.3534 7.16635 17.3312C7.1599 17.31 7.15932 17.2875 7.16467 17.2661C7.17002 17.2447 7.18109 17.2252 7.19669 17.2096C7.60607 16.8315 8.07087 16.5182 8.57496 16.2807C9.24284 15.965 9.21861 15.7342 8.48996 15.5945C7.20539 15.3568 5.985 14.852 4.90768 14.1131C4.89452 14.1053 4.88326 14.0948 4.87468 14.082C4.86613 14.0694 4.86047 14.055 4.85815 14.04C4.85583 14.0248 4.85689 14.0094 4.86125 13.9948C4.86562 13.9802 4.87318 13.9666 4.8834 13.9552C4.89826 13.9401 4.91726 13.9295 4.93804 13.9249C6.41952 13.4816 8.13174 13.8035 9.64363 14.1131C9.85004 14.1556 9.87427 14.1131 9.71035 13.9735C8.2458 12.7286 7.09545 11.1561 6.35274 9.38334C6.07951 8.7154 6.24951 8.56361 6.86883 8.93398C8.39309 9.83244 9.73741 11.0059 10.8337 12.3949C10.9732 12.5769 11.0157 12.5588 10.9551 12.3341C10.7691 11.7189 10.7111 11.0721 10.7851 10.4337C10.8364 10.1145 10.8834 9.80014 10.9299 9.48874C11.1313 8.14165 11.324 6.85255 11.8173 5.49135C11.853 5.38729 11.9268 5.30057 12.0237 5.24848C12.0414 5.23938 12.061 5.23406 12.081 5.23284C12.1009 5.2316 12.1209 5.23449 12.1398 5.24134C12.1585 5.24817 12.1757 5.25879 12.1902 5.27256C12.2046 5.28632 12.2163 5.30292 12.224 5.32134C12.6308 6.2928 12.9405 7.28856 13.153 8.33288C13.3305 9.19066 13.3197 10.0896 13.3091 10.9825C13.3044 11.3727 13.2998 11.7619 13.3108 12.1459C13.3169 12.3099 13.3716 12.328 13.4749 12.2066C14.6665 10.7658 16.1264 9.56992 17.7735 8.68505C18.0771 8.52718 18.1682 8.60611 18.0407 8.9279C17.4444 10.4156 16.6029 11.7926 15.5514 13.0019C15.2342 13.3863 14.8494 13.7094 14.4159 13.9552C14.3994 13.9646 14.3853 13.9778 14.3748 13.9935C14.3641 14.0094 14.3575 14.0275 14.3552 14.0463C14.3527 14.0563 14.3527 14.0667 14.3552 14.0767C14.3674 14.101 14.3855 14.107 14.4038 14.101Z" fill="#62850B"/>
<path fill-rule="evenodd" clip-rule="evenodd" d="M19.0711 19.0711C17.1958 20.9465 14.6522 22 12.0001 22C9.34782 22 6.8043 20.9465 4.92893 19.0711C3.05356 17.1958 2 14.6522 2 12.0001C2 9.34782 3.05356 6.8043 4.92893 4.92893C6.8043 3.05356 9.34782 2 12.0001 2C14.6522 2 17.1958 3.05356 19.0711 4.92893C20.9465 6.8043 22 9.34782 22 12.0001C22 14.6522 20.9465 17.1958 19.0711 19.0711ZM18.5215 18.5215C16.792 20.2512 14.446 21.2229 12.0001 21.2229C9.55395 21.2229 7.2081 20.2512 5.47848 18.5215C3.74886 16.792 2.77717 14.446 2.77717 12.0001C2.77717 9.55395 3.74886 7.2081 5.47848 5.47848C7.2081 3.74886 9.55395 2.77717 12.0001 2.77717C14.446 2.77717 16.792 3.74886 18.5215 5.47848C20.2512 7.2081 21.2229 9.55395 21.2229 12.0001C21.2229 14.446 20.2512 16.792 18.5215 18.5215Z" fill="#62850B"/>
</svg>

<svg xmlns="http://www.w3.org/2000/svg" width="24" height="24" fill="none" viewBox="0 0 24 24">
    <path fill="#62850B" fill-rule="evenodd" d="M18.062 18.062A8.573 8.573 0 1 1 5.937 5.937a8.573 8.573 0 0 1 12.125 12.125m-3.658-3.961a18.5 18.5 0 0 1 3.242-.4c.48-.011.957.084 1.397.278.121.05.121.11.018.177a10.2 10.2 0 0 1-3.48 1.433c-.606.121-.643.327-.078.619a6.6 6.6 0 0 1 1.481 1.026q.156.144-.06.17c-1.616.2-2.963-.31-4.336-1.105-.115-.06-.182-.037-.206.091-.134.631-.486 2.076-1.1 2.368a.07.07 0 0 1-.084-.012.06.06 0 0 1 0-.08 4.9 4.9 0 0 0 .868-2.276.14.14 0 0 0-.06-.134.14.14 0 0 0-.146-.012c-1.488.753-2.854 1.372-4.59 1.172a.13.13 0 0 1-.104-.085.12.12 0 0 1 .03-.121c.41-.379.875-.692 1.379-.93.668-.315.644-.546-.085-.686a9.3 9.3 0 0 1-3.582-1.48.1.1 0 0 1-.05-.074.1.1 0 0 1 .025-.085.1.1 0 0 1 .055-.03c1.482-.443 3.194-.122 4.706.188.206.043.23 0 .066-.14a12.2 12.2 0 0 1-3.357-4.59q-.411-1.004.516-.449a14.3 14.3 0 0 1 3.965 3.46q.211.276.121-.06a4.7 4.7 0 0 1-.17-1.9q.076-.48.145-.945c.201-1.347.394-2.636.887-3.998a.44.44 0 0 1 .207-.243.145.145 0 0 1 .166.025q.022.02.034.048c.407.972.716 1.968.929 3.012.178.858.167 1.757.156 2.65-.005.39-.01.779.002 1.163q.008.245.164.06a14.5 14.5 0 0 1 4.298-3.52q.457-.24.268.242a14.3 14.3 0 0 1-2.49 4.074 4.1 4.1 0 0 1-1.135.953.12.12 0 0 0-.06.091.1.1 0 0 0 0 .03c.011.025.03.031.048.025" clip-rule="evenodd"/>
    <path fill="#62850B" fill-rule="evenodd" d="M19.071 19.071A10 10 0 1 1 4.93 4.93a10 10 0 0 1 14.141 14.14m-.55-.55A9.222 9.222 0 1 1 5.48 5.48a9.222 9.222 0 0 1 13.043 13.042" clip-rule="evenodd"/>
</svg>
